; G-Code generated by Simplify3D(R) Version 4.1.2
; Oct 28, 2020 at 12:57:08 PM
; Settings Summary
;   processName,Process1
;   applyToModels,back_final
;   profileName,3D_Enter Cross D500 Series (modified)
;   profileVersion,2020-10-16 18:24:15
;   baseProfile,Default
;   printMaterial,PLA
;   printQuality,Medium
;   printExtruders,
;   extruderName,Extruder 1
;   extruderToolheadNumber,0
;   extruderDiameter,0.7
;   extruderAutoWidth,0
;   extruderWidth,0.7
;   extrusionMultiplier,0.9
;   extruderUseRetract,1
;   extruderRetractionDistance,1.5
;   extruderExtraRestartDistance,0
;   extruderRetractionZLift,0
;   extruderRetractionSpeed,1800
;   extruderUseCoasting,0
;   extruderCoastingDistance,0.2
;   extruderUseWipe,0
;   extruderWipeDistance,5
;   primaryExtruder,0
;   layerHeight,0.2
;   topSolidLayers,5
;   bottomSolidLayers,4
;   perimeterOutlines,3
;   printPerimetersInsideOut,1
;   startPointOption,2
;   startPointOriginX,0
;   startPointOriginY,0
;   sequentialIslands,0
;   spiralVaseMode,0
;   firstLayerHeightPercentage,200
;   firstLayerWidthPercentage,100
;   firstLayerUnderspeed,0.5
;   useRaft,0
;   raftExtruder,0
;   raftTopLayers,3
;   raftBaseLayers,2
;   raftOffset,3
;   raftSeparationDistance,0.14
;   raftTopInfill,100
;   aboveRaftSpeedMultiplier,0.3
;   useSkirt,1
;   skirtExtruder,0
;   skirtLayers,1
;   skirtOutlines,3
;   skirtOffset,4
;   usePrimePillar,0
;   primePillarExtruder,999
;   primePillarWidth,12
;   primePillarLocation,7
;   primePillarSpeedMultiplier,1
;   useOozeShield,0
;   oozeShieldExtruder,999
;   oozeShieldOffset,2
;   oozeShieldOutlines,1
;   oozeShieldSidewallShape,1
;   oozeShieldSidewallAngle,30
;   oozeShieldSpeedMultiplier,1
;   infillExtruder,0
;   internalInfillPattern,Full Honeycomb
;   externalInfillPattern,Rectilinear
;   infillPercentage,25
;   outlineOverlapPercentage,15
;   infillExtrusionWidthPercentage,100
;   minInfillLength,5
;   infillLayerInterval,1
;   internalInfillAngles,0,45,-45
;   overlapInternalInfillAngles,0
;   externalInfillAngles,45,-45
;   generateSupport,0
;   supportExtruder,0
;   supportInfillPercentage,30
;   supportExtraInflation,0
;   supportBaseLayers,0
;   denseSupportExtruder,0
;   denseSupportLayers,0
;   denseSupportInfillPercentage,70
;   supportLayerInterval,1
;   supportHorizontalPartOffset,0.3
;   supportUpperSeparationLayers,1
;   supportLowerSeparationLayers,1
;   supportType,0
;   supportGridSpacing,4
;   maxOverhangAngle,45
;   supportAngles,0
;   temperatureName,Primary Extruder
;   temperatureNumber,0
;   temperatureSetpointCount,1
;   temperatureSetpointLayers,1
;   temperatureSetpointTemperatures,0
;   temperatureStabilizeAtStartup,1
;   temperatureHeatedBed,0
;   fanLayers,1,2
;   fanSpeeds,0,100
;   blipFanToFullPower,0
;   adjustSpeedForCooling,1
;   minSpeedLayerTime,10
;   minCoolingSpeedSlowdown,40
;   increaseFanForCooling,0
;   minFanLayerTime,45
;   maxCoolingFanSpeed,100
;   increaseFanForBridging,0
;   bridgingFanSpeed,100
;   use5D,1
;   relativeEdistances,0
;   allowEaxisZeroing,1
;   independentExtruderAxes,0
;   includeM10123,0
;   stickySupport,1
;   applyToolheadOffsets,0
;   gcodeXoffset,0
;   gcodeYoffset,0
;   gcodeZoffset,0
;   overrideMachineDefinition,1
;   machineTypeOverride,0
;   strokeXoverride,600
;   strokeYoverride,500
;   strokeZoverride,650
;   originOffsetXoverride,0
;   originOffsetYoverride,0
;   originOffsetZoverride,0
;   homeXdirOverride,-1
;   homeYdirOverride,-1
;   homeZdirOverride,-1
;   flipXoverride,1
;   flipYoverride,-1
;   flipZoverride,1
;   toolheadOffsets,0,0|0,0|0,0|0,0|0,0|0,0
;   overrideFirmwareConfiguration,1
;   firmwareTypeOverride,RepRap (Marlin/Repetier/Sprinter)
;   GPXconfigOverride,r2
;   baudRateOverride,250000
;   overridePrinterModels,0
;   printerModelsOverride
;   startingGcode,G28 ; home all axes
;   layerChangeGcode,
;   retractionGcode,
;   toolChangeGcode,
;   endingGcode,M104 S0 ; turn off extruder,M140 S0 ; turn off bed,M84 ; disable motors
;   exportFileFormat,gcode
;   celebration,0
;   celebrationSong,Random Song
;   postProcessing,
;   defaultSpeed,3600
;   outlineUnderspeed,0.8
;   solidInfillUnderspeed,1
;   supportUnderspeed,1
;   rapidXYspeed,6000
;   rapidZspeed,180
;   minBridgingArea,50
;   bridgingExtraInflation,0
;   bridgingExtrusionMultiplier,1
;   bridgingSpeedMultiplier,1
;   useFixedBridgingAngle,0
;   fixedBridgingAngle,0
;   applyBridgingToPerimeters,0
;   filamentDiameters,1.75|1.75|1.75|1.75|1.75|1.75
;   filamentPricesPerKg,46|46|46|46|46|46
;   filamentDensities,1.25|1.25|1.25|1.25|1.25|1.25
;   useMinPrintHeight,0
;   minPrintHeight,0
;   useMaxPrintHeight,0
;   maxPrintHeight,0
;   useDiaphragm,0
;   diaphragmLayerInterval,20
;   robustSlicing,1
;   mergeAllIntoSolid,0
;   onlyRetractWhenCrossingOutline,1
;   retractBetweenLayers,1
;   useRetractionMinTravel,0
;   retractionMinTravel,3
;   retractWhileWiping,0
;   onlyWipeOutlines,1
;   avoidCrossingOutline,0
;   maxMovementDetourFactor,3
;   toolChangeRetractionDistance,12
;   toolChangeExtraRestartDistance,-0.5
;   toolChangeRetractionSpeed,600
;   externalThinWallType,0
;   internalThinWallType,2
;   thinWallAllowedOverlapPercentage,10
;   singleExtrusionMinLength,1
;   singleExtrusionMinPrintingWidthPercentage,50
;   singleExtrusionMaxPrintingWidthPercentage,200
;   singleExtrusionEndpointExtension,0.2
;   horizontalSizeCompensation,0
G90
M82
M106 S255
M104 S0 T0
G28 ; home all axes
; process Process1
; layer 1, Z = 3.400
T0
G92 E0.0000
G1 E-1.5000 F1800
; feature outer perimeter
; tool H0.200 W0.700
G1 Z3.400 F180
G1 X290.396 Y290.198 F6000
G1 E0.0000 F1800
G92 E0.0000
G1 X309.604 Y290.198 E1.0062 F1152
G1 X307.074 Y291.151 E1.1478
G1 X304.765 Y291.443 E1.2697
G1 X300.000 Y292.011 E1.5211
G1 X295.235 Y291.443 E1.7725
G1 X292.926 Y291.151 E1.8944
G1 X290.396 Y290.198 E2.0360
; feature gap fill
G1 X294.844 Y290.794 F6000
G92 E0.0000
G1 X295.835 Y290.793 E0.0519 F1440
G1 X295.726 Y290.902 E0.0600
G1 X296.610 Y291.008 E0.1067
G1 X296.825 Y290.793 E0.1226
G1 X297.815 Y290.793 E0.1745
G1 X297.495 Y291.113 E0.1982
G1 X298.379 Y291.219 E0.2449
G1 X298.805 Y290.793 E0.2764
G1 X299.795 Y290.793 E0.3283
G1 X299.264 Y291.324 E0.3676
G1 X300.000 Y291.412 E0.4065
G1 X300.189 Y291.389 E0.4164
G1 X300.785 Y290.793 E0.4606
G1 X301.775 Y290.793 E0.5125
G1 X301.312 Y291.255 E0.5467
G1 X302.436 Y291.121 E0.6060
G1 X302.765 Y290.793 E0.6304
G1 X303.755 Y290.793 E0.6822
G1 X303.560 Y290.987 E0.6966
G1 X304.684 Y290.854 E0.7559
G1 X304.745 Y290.793 E0.7604
G92 E0.0000
G1 E-1.5000 F1800
; layer 2, Z = 3.600
; feature inner perimeter
G1 Z3.600 F180
G1 X306.731 Y289.258 F6000
G1 E0.0000 F1800
G92 E0.0000
G1 X300.000 Y290.108 E0.3554 F1816
G1 X293.269 Y289.258 E0.7108
G1 X286.544 Y286.721 E1.0873
G1 X285.909 Y286.319 E1.1267
G1 X286.041 Y285.864 E1.1515
G1 X313.960 Y285.864 E2.6140
G1 X314.092 Y286.319 E2.6388
G1 X313.457 Y286.721 E2.6782
G1 X306.731 Y289.258 E3.0547
G1 X306.901 Y289.942 F6000
G92 E0.0000
G1 X300.000 Y290.813 E0.3644 F1816
G1 X293.099 Y289.942 E0.7287
G1 X286.229 Y287.351 E1.1134
G1 X283.499 Y285.619 E1.2827
G1 X283.631 Y285.164 E1.3075
G1 X316.372 Y285.164 E3.0226
G1 X316.504 Y285.619 E3.0474
G1 X313.771 Y287.351 E3.2169
G1 X306.901 Y289.942 E3.6015
; feature outer perimeter
G1 X307.070 Y290.626 F6000
G92 E0.0000
G1 X300.000 Y291.519 E0.3733 F1614
G1 X292.930 Y290.626 E0.7466
G1 X285.915 Y287.980 E1.1394
G1 X281.012 Y284.869 E1.4436
G1 X280.409 Y284.464 E1.4816
G1 X319.590 Y284.464 E3.5341
G1 X318.855 Y284.958 E3.5804
G1 X314.085 Y287.980 E3.8763
G1 X307.070 Y290.626 E4.2690
; feature gap fill
G1 X314.970 Y285.759 F6000
G92 E0.0000
G1 X315.048 Y285.837 E0.0058 F2018
G1 X317.240 Y285.059 F6000
G92 E0.0000
G1 X317.373 Y285.192 E0.0099 F2018
G1 X285.406 Y285.893 F6000
G92 E0.0000
G1 X285.272 Y285.759 E0.0099 F2018
G1 X282.887 Y285.354 F6000
G92 E0.0000
G1 X282.592 Y285.059 E0.0218 F2018
; feature bridge
G1 X288.100 Y286.672 F6000
G92 E0.0000
G1 X288.100 Y286.459 E0.0112 F2018
G1 X288.800 Y286.459 E0.0478
G1 X288.800 Y286.936 E0.0728
G1 X289.500 Y287.200 E0.1120
G1 X289.500 Y286.459 E0.1508
G1 X290.200 Y286.459 E0.1875
G1 X290.200 Y287.464 E0.2401
G1 X290.900 Y287.728 E0.2793
G1 X290.900 Y286.459 E0.3458
G1 X291.600 Y286.459 E0.3825
G1 X291.600 Y287.992 E0.4628
G1 X292.300 Y288.256 E0.5020
G1 X292.300 Y286.459 E0.5961
G1 X293.000 Y286.459 E0.6328
G1 X293.000 Y288.520 E0.7407
G1 X293.413 Y288.676 E0.7639
G1 X293.700 Y288.712 E0.7790
G1 X293.700 Y286.459 E0.8970
G1 X294.400 Y286.459 E0.9337
G1 X294.400 Y288.801 E1.0563
G1 X295.100 Y288.889 E1.0933
G1 X295.100 Y286.459 E1.2206
G1 X295.800 Y286.459 E1.2573
G1 X295.800 Y288.978 E1.3892
G1 X296.500 Y289.066 E1.4261
G1 X296.500 Y286.459 E1.5627
G1 X297.200 Y286.459 E1.5994
G1 X297.200 Y289.154 E1.7406
G1 X297.900 Y289.243 E1.7775
G1 X297.900 Y286.459 E1.9233
G1 X298.600 Y286.459 E1.9600
G1 X298.600 Y289.331 E2.1105
G1 X299.300 Y289.420 E2.1474
G1 X299.300 Y286.459 E2.3025
G1 X300.000 Y286.459 E2.3392
G1 X300.000 Y289.508 E2.4989
G1 X300.700 Y289.420 E2.5358
G1 X300.700 Y286.459 E2.6909
G1 X301.400 Y286.459 E2.7276
G1 X301.400 Y289.331 E2.8781
G1 X302.100 Y289.243 E2.9150
G1 X302.100 Y286.459 E3.0608
G1 X302.800 Y286.459 E3.0975
G1 X302.800 Y289.154 E3.2387
G1 X303.500 Y289.066 E3.2757
G1 X303.500 Y286.459 E3.4122
G1 X304.200 Y286.459 E3.4489
G1 X304.200 Y288.978 E3.5808
G1 X304.900 Y288.889 E3.6178
G1 X304.900 Y286.459 E3.7450
G1 X305.600 Y286.459 E3.7817
G1 X305.600 Y288.801 E3.9044
G1 X306.300 Y288.712 E3.9413
G1 X306.300 Y286.459 E4.0594
G1 X307.000 Y286.459 E4.0960
G1 X307.000 Y288.520 E4.2040
G1 X307.700 Y288.256 E4.2432
G1 X307.700 Y286.459 E4.3373
G1 X308.400 Y286.459 E4.3740
G1 X308.400 Y287.992 E4.4543
G1 X309.100 Y287.728 E4.4935
G1 X309.100 Y286.459 E4.5600
G1 X309.800 Y286.459 E4.5966
G1 X309.800 Y287.464 E4.6493
G1 X310.500 Y287.200 E4.6885
G1 X310.500 Y286.459 E4.7273
G1 X311.200 Y286.459 E4.7639
G1 X311.200 Y286.936 E4.7889
G1 X311.900 Y286.672 E4.8281
G1 X311.900 Y286.459 E4.8393
G92 E0.0000
G1 E-1.5000 F1800
; layer 3, Z = 3.800
; feature inner perimeter
G1 Z3.800 F180
G1 X313.452 Y286.196 F6000
G1 E0.0000 F1800
G92 E0.0000
G1 X306.728 Y288.732 E0.3765 F3031
G1 X300.000 Y289.582 E0.7317
G1 X293.272 Y288.732 E1.0869
G1 X286.548 Y286.196 E1.4634
G1 X282.944 Y283.912 E1.6869
G1 X279.956 Y281.904 E1.8755
G1 X278.112 Y280.131 E2.0095
G1 X284.149 Y280.131 E2.3257
G1 X285.551 Y281.135 E2.4161
G1 X290.827 Y283.379 E2.7164
G1 X292.729 Y284.141 E2.8237
G1 X300.000 Y285.082 E3.2078
G1 X307.271 Y284.141 E3.5919
G1 X309.173 Y283.379 E3.6992
G1 X314.448 Y281.135 E3.9995
G1 X315.850 Y280.131 E4.0898
G1 X321.886 Y280.131 E4.4060
G1 X320.043 Y281.904 E4.5400
G1 X317.055 Y283.912 E4.7286
G1 X313.452 Y286.196 E4.9521
G1 X313.766 Y286.825 F6000
G92 E0.0000
G1 X306.897 Y289.416 E0.3846 F3031
G1 X300.000 Y290.288 E0.7487
G1 X293.103 Y289.416 E1.1129
G1 X286.234 Y286.825 E1.4975
G1 X282.562 Y284.499 E1.7252
G1 X279.514 Y282.451 E1.9176
G1 X276.375 Y279.431 E2.1457
G1 X284.374 Y279.431 E2.5648
G1 X285.896 Y280.521 E2.6629
G1 X291.094 Y282.732 E2.9587
G1 X292.907 Y283.458 E3.0611
G1 X300.000 Y284.376 E3.4357
G1 X307.093 Y283.458 E3.8104
G1 X308.906 Y282.732 E3.9127
G1 X314.103 Y280.521 E4.2085
G1 X315.625 Y279.431 E4.3066
G1 X323.624 Y279.431 E4.7256
G1 X320.485 Y282.451 E4.9538
G1 X317.438 Y284.499 E5.1461
G1 X313.766 Y286.825 E5.3738
; feature outer perimeter
G1 X314.080 Y287.455 F6000
G92 E0.0000
G1 X307.067 Y290.100 E0.3926 F2694
G1 X300.000 Y290.993 E0.7658
G1 X292.933 Y290.100 E1.1389
G1 X285.920 Y287.455 E1.5316
G1 X282.179 Y285.085 E1.7636
G1 X279.073 Y282.998 E1.9596
G1 X274.637 Y278.731 E2.2820
G1 X284.599 Y278.731 E2.8038
G1 X286.241 Y279.907 E2.9096
G1 X291.361 Y282.085 E3.2011
G1 X293.085 Y282.775 E3.2984
G1 X300.000 Y283.670 E3.6636
G1 X306.915 Y282.775 E4.0289
G1 X308.639 Y282.085 E4.1262
G1 X313.758 Y279.907 E4.4176
G1 X315.400 Y278.731 E4.5234
G1 X325.361 Y278.731 E5.0452
G1 X320.926 Y282.998 E5.3676
G1 X317.820 Y285.085 E5.5636
G1 X314.080 Y287.455 E5.7956
; feature solid layer
G1 X312.643 Y285.865 F6000
G92 E0.0000
G1 X313.343 Y285.164 E0.0519 F3368
G1 X312.353 Y285.164 E0.1038
G1 X311.053 Y286.465 E0.2001
G1 X309.464 Y287.064 E0.2891
G1 X311.363 Y285.164 E0.4298
G1 X310.373 Y285.164 E0.4817
G1 X307.874 Y287.664 E0.6669
G1 X306.583 Y288.151 E0.7391
G1 X306.370 Y288.177 E0.7504
G1 X309.383 Y285.164 E0.9736
G1 X308.394 Y285.164 E1.0255
G1 X305.237 Y288.321 E1.2593
G1 X304.104 Y288.464 E1.3191
G1 X307.404 Y285.164 E1.5636
G1 X307.129 Y285.164 E1.5780
G1 X307.053 Y284.769 E1.5991
G1 X306.773 Y284.805 E1.6138
G1 X302.971 Y288.607 E1.8955
G1 X301.838 Y288.750 E1.9554
G1 X305.636 Y284.952 E2.2367
G1 X304.499 Y285.099 E2.2968
G1 X300.704 Y288.894 E2.5779
G1 X300.000 Y288.983 E2.6151
G1 X299.668 Y288.941 E2.6326
G1 X303.362 Y285.247 E2.9063
G1 X302.224 Y285.394 E2.9664
G1 X298.789 Y288.829 E3.2209
G1 X297.910 Y288.718 E3.2673
G1 X301.087 Y285.541 E3.5027
G1 X300.000 Y285.682 E3.5601
G1 X299.962 Y285.677 E3.5622
G1 X297.031 Y288.607 E3.7793
G1 X296.152 Y288.496 E3.8257
G1 X299.085 Y285.563 E4.0430
G1 X298.209 Y285.450 E4.0893
G1 X295.273 Y288.385 E4.3068
G1 X294.394 Y288.274 E4.3532
G1 X297.332 Y285.336 E4.5708
G1 X296.456 Y285.223 E4.6171
G1 X293.515 Y288.163 E4.8349
G1 X293.417 Y288.151 E4.8402
G1 X292.779 Y287.910 E4.8759
G1 X295.579 Y285.109 E5.0833
G1 X294.703 Y284.996 E5.1296
G1 X292.060 Y287.639 E5.3254
G1 X291.341 Y287.368 E5.3657
G1 X293.826 Y284.882 E5.5498
G1 X292.950 Y284.769 E5.5961
G1 X292.871 Y285.164 E5.6172
G1 X292.554 Y285.164 E5.6338
G1 X290.622 Y287.096 E5.7770
G1 X289.903 Y286.825 E5.8172
G1 X291.564 Y285.164 E5.9403
G1 X290.574 Y285.164 E5.9921
G1 X289.184 Y286.554 E6.0951
G1 X288.466 Y286.283 E6.1354
G1 X289.584 Y285.164 E6.2183
G1 X288.595 Y285.164 E6.2701
G1 X287.747 Y286.012 E6.3329
G1 X287.028 Y285.741 E6.3732
G1 X287.605 Y285.164 E6.4159
G1 X286.615 Y285.164 E6.4677
G1 X286.389 Y285.390 E6.4845
; feature bridge
G1 X284.668 Y284.300 F6000
G92 E0.0000
G1 X291.527 Y284.300 E0.3593 F3368
G1 X290.600 Y283.929 E0.4116
G1 X289.826 Y283.600 E0.4556
G1 X283.563 Y283.600 E0.7838
G1 X283.269 Y283.414 E0.8019
G1 X282.504 Y282.900 E0.8502
G1 X288.180 Y282.900 E1.1476
G1 X286.534 Y282.200 E1.2413
G1 X281.463 Y282.200 E1.5069
G1 X280.421 Y281.500 E1.5727
G1 X285.038 Y281.500 E1.8145
G1 X284.061 Y280.800 E1.8775
G1 X279.666 Y280.800 E2.1077
G92 E0.0000
G1 E-1.5000 F1800
G1 X308.474 Y284.300 F6000
G1 E0.0000 F1800
G92 E0.0000
G1 X315.332 Y284.300 E0.3593 F3368
G1 X316.437 Y283.600 E0.4278
G1 X310.174 Y283.600 E0.7559
G1 X311.820 Y282.900 E0.8495
G1 X317.495 Y282.900 E1.1468
G1 X318.536 Y282.200 E1.2126
G1 X313.465 Y282.200 E1.4782
G1 X314.742 Y281.657 E1.5509
G1 X314.961 Y281.500 E1.5650
G1 X319.578 Y281.500 E1.8069
G1 X319.668 Y281.439 E1.8126
G1 X320.333 Y280.800 E1.8609
G1 X315.938 Y280.800 E2.0911
G92 E0.0000
G1 E-1.5000 F1800
; layer 4, Z = 4.000
; feature inner perimeter
G1 Z4.000 F180
G1 X314.439 Y280.533 F6000
G1 E0.0000 F1800
G92 E0.0000
G1 X319.453 Y276.941 E0.3231 F3240
G1 X321.341 Y275.494 E0.4477
G1 X322.349 Y274.397 E0.5257
G1 X326.918 Y274.397 E0.7651
G1 X326.474 Y274.997 E0.8042
G1 X323.898 Y277.625 E0.9969
G1 X320.033 Y281.343 E1.2779
G1 X316.020 Y284.040 E1.5311
G1 X313.447 Y285.670 E1.6907
G1 X306.724 Y288.206 E2.0671
G1 X300.000 Y289.057 E2.4221
G1 X293.276 Y288.206 E2.7772
G1 X286.553 Y285.670 E3.1536
G1 X283.979 Y284.040 E3.3132
G1 X279.966 Y281.343 E3.5665
G1 X276.101 Y277.625 E3.8475
G1 X273.525 Y274.997 E4.0402
G1 X273.080 Y274.397 E4.0793
G1 X277.650 Y274.397 E4.3187
G1 X278.659 Y275.494 E4.3967
G1 X280.546 Y276.941 E4.5213
G1 X285.560 Y280.533 E4.8444
G1 X292.714 Y283.575 E5.2517
G1 X300.000 Y284.514 E5.6365
G1 X307.286 Y283.575 E6.0213
G1 X314.439 Y280.533 E6.4285
G1 X314.094 Y279.919 F6000
G92 E0.0000
G1 X319.036 Y276.378 E0.3185 F3240
G1 X320.867 Y274.975 E0.4393
G1 X322.042 Y273.697 E0.5302
G1 X328.307 Y273.697 E0.8585
G1 X327.008 Y275.453 E0.9729
G1 X324.390 Y278.122 E1.1687
G1 X320.474 Y281.890 E1.4534
G1 X316.403 Y284.626 E1.7103
G1 X313.761 Y286.300 E1.8742
