; G-Code generated by Simplify3D(R) Version 4.1.2
; Oct 28, 2020 at 12:58:33 PM
; Settings Summary
;   processName,Process1
;   applyToModels,bigservo_final
;   profileName,3D_Enter Cross D500 Series (modified)
;   profileVersion,2020-10-16 18:24:15
;   baseProfile,Default
;   printMaterial,PLA
;   printQuality,Medium
;   printExtruders,
;   extruderName,Extruder 1
;   extruderToolheadNumber,0
;   extruderDiameter,0.7
;   extruderAutoWidth,0
;   extruderWidth,0.7
;   extrusionMultiplier,0.9
;   extruderUseRetract,1
;   extruderRetractionDistance,1.5
;   extruderExtraRestartDistance,0
;   extruderRetractionZLift,0
;   extruderRetractionSpeed,1800
;   extruderUseCoasting,0
;   extruderCoastingDistance,0.2
;   extruderUseWipe,0
;   extruderWipeDistance,5
;   primaryExtruder,0
;   layerHeight,0.2
;   topSolidLayers,5
;   bottomSolidLayers,4
;   perimeterOutlines,3
;   printPerimetersInsideOut,1
;   startPointOption,2
;   startPointOriginX,0
;   startPointOriginY,0
;   sequentialIslands,0
;   spiralVaseMode,0
;   firstLayerHeightPercentage,200
;   firstLayerWidthPercentage,100
;   firstLayerUnderspeed,0.5
;   useRaft,0
;   raftExtruder,0
;   raftTopLayers,3
;   raftBaseLayers,2
;   raftOffset,3
;   raftSeparationDistance,0.14
;   raftTopInfill,100
;   aboveRaftSpeedMultiplier,0.3
;   useSkirt,1
;   skirtExtruder,0
;   skirtLayers,1
;   skirtOutlines,3
;   skirtOffset,4
;   usePrimePillar,0
;   primePillarExtruder,999
;   primePillarWidth,12
;   primePillarLocation,7
;   primePillarSpeedMultiplier,1
;   useOozeShield,0
;   oozeShieldExtruder,999
;   oozeShieldOffset,2
;   oozeShieldOutlines,1
;   oozeShieldSidewallShape,1
;   oozeShieldSidewallAngle,30
;   oozeShieldSpeedMultiplier,1
;   infillExtruder,0
;   internalInfillPattern,Full Honeycomb
;   externalInfillPattern,Rectilinear
;   infillPercentage,25
;   outlineOverlapPercentage,15
;   infillExtrusionWidthPercentage,100
;   minInfillLength,5
;   infillLayerInterval,1
;   internalInfillAngles,0,45,-45
;   overlapInternalInfillAngles,0
;   externalInfillAngles,45,-45
;   generateSupport,0
;   supportExtruder,0
;   supportInfillPercentage,30
;   supportExtraInflation,0
;   supportBaseLayers,0
;   denseSupportExtruder,0
;   denseSupportLayers,0
;   denseSupportInfillPercentage,70
;   supportLayerInterval,1
;   supportHorizontalPartOffset,0.3
;   supportUpperSeparationLayers,1
;   supportLowerSeparationLayers,1
;   supportType,0
;   supportGridSpacing,4
;   maxOverhangAngle,45
;   supportAngles,0
;   temperatureName,Primary Extruder
;   temperatureNumber,0
;   temperatureSetpointCount,1
;   temperatureSetpointLayers,1
;   temperatureSetpointTemperatures,0
;   temperatureStabilizeAtStartup,1
;   temperatureHeatedBed,0
;   fanLayers,1,2
;   fanSpeeds,0,100
;   blipFanToFullPower,0
;   adjustSpeedForCooling,1
;   minSpeedLayerTime,10
;   minCoolingSpeedSlowdown,40
;   increaseFanForCooling,0
;   minFanLayerTime,45
;   maxCoolingFanSpeed,100
;   increaseFanForBridging,0
;   bridgingFanSpeed,100
;   use5D,1
;   relativeEdistances,0
;   allowEaxisZeroing,1
;   independentExtruderAxes,0
;   includeM10123,0
;   stickySupport,1
;   applyToolheadOffsets,0
;   gcodeXoffset,0
;   gcodeYoffset,0
;   gcodeZoffset,0
;   overrideMachineDefinition,1
;   machineTypeOverride,0
;   strokeXoverride,600
;   strokeYoverride,500
;   strokeZoverride,650
;   originOffsetXoverride,0
;   originOffsetYoverride,0
;   originOffsetZoverride,0
;   homeXdirOverride,-1
;   homeYdirOverride,-1
;   homeZdirOverride,-1
;   flipXoverride,1
;   flipYoverride,-1
;   flipZoverride,1
;   toolheadOffsets,0,0|0,0|0,0|0,0|0,0|0,0
;   overrideFirmwareConfiguration,1
;   firmwareTypeOverride,RepRap (Marlin/Repetier/Sprinter)
;   GPXconfigOverride,r2
;   baudRateOverride,250000
;   overridePrinterModels,0
;   printerModelsOverride
;   startingGcode,G28 ; home all axes
;   layerChangeGcode,
;   retractionGcode,
;   toolChangeGcode,
;   endingGcode,M104 S0 ; turn off extruder,M140 S0 ; turn off bed,M84 ; disable motors
;   exportFileFormat,gcode
;   celebration,0
;   celebrationSong,Random Song
;   postProcessing,
;   defaultSpeed,3600
;   outlineUnderspeed,0.8
;   solidInfillUnderspeed,1
;   supportUnderspeed,1
;   rapidXYspeed,6000
;   rapidZspeed,180
;   minBridgingArea,50
;   bridgingExtraInflation,0
;   bridgingExtrusionMultiplier,1
;   bridgingSpeedMultiplier,1
;   useFixedBridgingAngle,0
;   fixedBridgingAngle,0
;   applyBridgingToPerimeters,0
;   filamentDiameters,1.75|1.75|1.75|1.75|1.75|1.75
;   filamentPricesPerKg,46|46|46|46|46|46
;   filamentDensities,1.25|1.25|1.25|1.25|1.25|1.25
;   useMinPrintHeight,0
;   minPrintHeight,0
;   useMaxPrintHeight,0
;   maxPrintHeight,0
;   useDiaphragm,0
;   diaphragmLayerInterval,20
;   robustSlicing,1
;   mergeAllIntoSolid,0
;   onlyRetractWhenCrossingOutline,1
;   retractBetweenLayers,1
;   useRetractionMinTravel,0
;   retractionMinTravel,3
;   retractWhileWiping,0
;   onlyWipeOutlines,1
;   avoidCrossingOutline,0
;   maxMovementDetourFactor,3
;   toolChangeRetractionDistance,12
;   toolChangeExtraRestartDistance,-0.5
;   toolChangeRetractionSpeed,600
;   externalThinWallType,0
;   internalThinWallType,2
;   thinWallAllowedOverlapPercentage,10
;   singleExtrusionMinLength,1
;   singleExtrusionMinPrintingWidthPercentage,50
;   singleExtrusionMaxPrintingWidthPercentage,200
;   singleExtrusionEndpointExtension,0.2
;   horizontalSizeCompensation,0
G90
M82
M106 S0
M104 S0 T0
G28 ; home all axes
; process Process1
; layer 1, Z = 0.400
T0
G92 E0.0000
G1 E-1.5000 F1800
; feature skirt
; tool H0.400 W0.700
G1 Z0.400 F180
G1 X294.220 Y310.973 F6000
G1 E0.0000 F1800
G92 E0.0000
G1 X299.226 Y306.209 E0.7240 F1800
G1 X299.418 Y306.041 E0.7507
G1 X304.806 Y301.755 E1.4720
G1 X305.011 Y301.607 E1.4985
G1 X310.734 Y297.824 E2.2172
G1 X310.950 Y297.694 E2.2437
G1 X315.169 Y295.411 E2.7463
G1 X316.983 Y294.432 E2.9622
G1 X317.212 Y294.321 E2.9889
G1 X323.488 Y291.621 E3.7047
G1 X323.729 Y291.530 E3.7317
G1 X330.218 Y289.404 E4.4471
G1 X330.470 Y289.334 E4.4745
G1 X337.102 Y287.811 E5.1874
G1 X337.356 Y287.765 E5.2144
G1 X344.105 Y286.842 E5.9282
G1 X344.367 Y286.819 E5.9557
G1 X351.160 Y286.516 E6.6680
G1 X351.415 Y286.516 E6.6948
G1 X358.209 Y286.819 E7.4073
G1 X358.470 Y286.842 E7.4348
G1 X365.219 Y287.765 E8.1484
G1 X365.473 Y287.811 E8.1755
G1 X372.105 Y289.334 E8.8884
G1 X372.357 Y289.404 E8.9158
G1 X378.846 Y291.530 E9.6312
G1 X379.088 Y291.621 E9.6583
G1 X385.364 Y294.322 E10.3741
G1 X385.596 Y294.434 E10.4011
G1 X391.623 Y297.694 E11.1190
G1 X391.841 Y297.824 E11.1456
G1 X397.564 Y301.607 E11.8643
G1 X397.768 Y301.755 E11.8908
G1 X403.157 Y306.041 E12.6122
G1 X403.350 Y306.209 E12.6390
G1 X408.355 Y310.973 E13.3629
G1 X408.528 Y311.152 E13.3889
G1 X413.116 Y316.345 E14.1150
G1 X413.275 Y316.541 E14.1414
G1 X417.399 Y322.126 E14.8688
G1 X417.534 Y322.327 E14.8942
G1 X421.185 Y328.257 E15.6238
G1 X421.307 Y328.477 E15.6501
G1 X424.435 Y334.722 E16.3819
G1 X424.535 Y334.945 E16.4075
G1 X427.124 Y341.440 E17.1400
G1 X427.205 Y341.668 E17.1654
G1 X429.245 Y348.382 E17.9005
G1 X429.307 Y348.620 E17.9263
G1 X430.768 Y355.487 E18.6619
G1 X430.808 Y355.723 E18.6870
G1 X431.694 Y362.688 E19.4225
G1 X431.714 Y362.927 E19.4477
G1 X432.015 Y369.951 E20.1843
G1 X432.015 Y370.198 E20.2102
G1 X431.714 Y377.222 E20.9468
G1 X431.694 Y377.461 E20.9719
G1 X430.808 Y384.437 E21.7085
G1 X430.768 Y384.674 E21.7338
G1 X429.306 Y391.531 E22.4684
G1 X429.245 Y391.768 E22.4940
G1 X427.205 Y398.481 E23.2291
G1 X427.125 Y398.709 E23.2544
G1 X426.064 Y401.371 E23.5546
G1 X423.141 Y403.352 E23.9245
G1 X279.433 Y403.352 E38.9807
G1 X276.511 Y401.370 E39.3507
G1 X275.450 Y398.709 E39.6509
G1 X275.371 Y398.481 E39.6761
G1 X273.330 Y391.769 E40.4112
G1 X273.269 Y391.531 E40.4369
G1 X271.807 Y384.674 E41.1714
G1 X271.767 Y384.437 E41.1967
G1 X270.881 Y377.461 E41.9333
G1 X270.861 Y377.222 E41.9584
G1 X270.560 Y370.198 E42.6951
G1 X270.560 Y369.951 E42.7209
G1 X270.861 Y362.927 E43.4575
G1 X270.881 Y362.688 E43.4827
G1 X271.767 Y355.723 E44.2182
G1 X271.807 Y355.488 E44.2433
G1 X273.268 Y348.620 E44.9789
G1 X273.330 Y348.382 E45.0047
G1 X275.371 Y341.668 E45.7398
G1 X275.451 Y341.440 E45.7652
G1 X278.040 Y334.945 E46.4977
G1 X278.140 Y334.722 E46.5233
G1 X281.268 Y328.477 E47.2551
G1 X281.391 Y328.257 E47.2815
G1 X285.042 Y322.327 E48.0111
G1 X285.177 Y322.127 E48.0364
G1 X289.300 Y316.542 E48.7637
G1 X289.459 Y316.345 E48.7902
G1 X294.048 Y311.152 E49.5163
G1 X294.220 Y310.973 E49.5423
G92 E0.0000
G1 E-1.5000 F1800
G1 X294.714 Y311.469 F6000
G1 E0.0000 F1800
G92 E0.0000
G1 X299.697 Y306.726 E0.7208 F1800
G1 X299.866 Y306.579 E0.7443
G1 X305.230 Y302.313 E1.4623
G1 X305.410 Y302.182 E1.4856
G1 X311.107 Y298.417 E2.2010
G1 X311.297 Y298.303 E2.2243
G1 X315.502 Y296.027 E2.7252
G1 X317.302 Y295.056 E2.9395
G1 X317.503 Y294.958 E2.9629
G1 X323.750 Y292.270 E3.6755
G1 X323.962 Y292.190 E3.6992
G1 X330.421 Y290.074 E4.4113
G1 X330.643 Y290.013 E4.4354
G1 X337.243 Y288.497 E5.1449
G1 X337.466 Y288.456 E5.1687
G1 X344.184 Y287.538 E5.8791
G1 X344.414 Y287.517 E5.9032
G1 X351.175 Y287.216 E6.6123
G1 X351.400 Y287.216 E6.6358
G1 X358.162 Y287.517 E7.3449
G1 X358.391 Y287.538 E7.3691
G1 X365.109 Y288.456 E8.0794
G1 X365.332 Y288.497 E8.1032
G1 X371.933 Y290.013 E8.8128
G1 X372.154 Y290.074 E8.8368
G1 X378.614 Y292.190 E9.5490
G1 X378.826 Y292.270 E9.5727
G1 X385.073 Y294.959 E10.2853
G1 X385.277 Y295.057 E10.3090
G1 X391.277 Y298.302 E11.0237
G1 X391.468 Y298.417 E11.0470
G1 X397.165 Y302.182 E11.7625
G1 X397.345 Y302.312 E11.7857
G1 X402.710 Y306.579 E12.5039
G1 X402.879 Y306.726 E12.5274
G1 X407.862 Y311.469 E13.2482
G1 X408.013 Y311.627 E13.2710
G1 X412.582 Y316.797 E13.9939
G1 X412.721 Y316.969 E14.0171
G1 X416.827 Y322.530 E14.7413
G1 X416.946 Y322.707 E14.7636
G1 X420.580 Y328.611 E15.4900
G1 X420.688 Y328.804 E15.5132
G1 X423.802 Y335.022 E16.2418
G1 X423.890 Y335.218 E16.2642
G1 X426.469 Y341.685 E16.9937
G1 X426.539 Y341.886 E17.0160
G1 X428.571 Y348.571 E17.7480
G1 X428.625 Y348.780 E17.7706
G1 X430.081 Y355.619 E18.5032
G1 X430.116 Y355.826 E18.5252
G1 X430.997 Y362.762 E19.2577
G1 X431.015 Y362.972 E19.2798
G1 X431.315 Y369.966 E20.0133
G1 X431.315 Y370.183 E20.0360
G1 X431.015 Y377.178 E20.7695
G1 X430.997 Y377.387 E20.7915
G1 X430.116 Y384.334 E21.5251
G1 X430.080 Y384.542 E21.5473
G1 X428.625 Y391.371 E22.2788
G1 X428.571 Y391.579 E22.3013
G1 X426.539 Y398.263 E23.0333
G1 X426.469 Y398.464 E23.0555
G1 X425.493 Y400.912 E23.3316
G1 X422.927 Y402.652 E23.6565
G1 X279.648 Y402.652 E38.6677
G1 X277.081 Y400.912 E38.9927
G1 X276.106 Y398.463 E39.2688
G1 X276.036 Y398.263 E39.2910
G1 X274.004 Y391.579 E40.0229
G1 X273.950 Y391.371 E40.0455
G1 X272.495 Y384.542 E40.7769
G1 X272.460 Y384.334 E40.7991
G1 X271.578 Y377.388 E41.5327
G1 X271.560 Y377.178 E41.5547
G1 X271.260 Y370.183 E42.2883
G1 X271.260 Y369.966 E42.3110
G1 X271.560 Y362.972 E43.0445
G1 X271.578 Y362.761 E43.0666
G1 X272.460 Y355.826 E43.7990
G1 X272.495 Y355.619 E43.8210
G1 X273.950 Y348.780 E44.5536
G1 X274.004 Y348.571 E44.5762
G1 X276.036 Y341.886 E45.3083
G1 X276.107 Y341.685 E45.3305
G1 X278.685 Y335.218 E46.0600
G1 X278.773 Y335.022 E46.0825
G1 X281.887 Y328.804 E46.8111
G1 X281.995 Y328.611 E46.8342
G1 X285.630 Y322.706 E47.5607
G1 X285.749 Y322.530 E47.5830
G1 X289.854 Y316.970 E48.3071
G1 X289.994 Y316.797 E48.3303
G1 X294.562 Y311.626 E49.0533
G1 X294.714 Y311.469 E49.0761
G92 E0.0000
G1 E-1.5000 F1800
G1 X295.207 Y311.966 F6000
G1 E0.0000 F1800
G92 E0.0000
G1 X300.168 Y307.244 E0.7175 F1800
G1 X300.314 Y307.117 E0.7378
G1 X305.654 Y302.870 E1.4526
G1 X305.809 Y302.758 E1.4727
G1 X311.480 Y299.009 E2.1849
G1 X311.644 Y298.911 E2.2049
G1 X315.835 Y296.642 E2.7042
G1 X317.620 Y295.679 E2.9168
G1 X317.794 Y295.595 E2.9370
G1 X324.013 Y292.920 E3.6462
G1 X324.195 Y292.851 E3.6667
G1 X330.624 Y290.744 E4.3755
G1 X330.815 Y290.691 E4.3962
G1 X337.384 Y289.183 E5.1024
G1 X337.577 Y289.148 E5.1229
G1 X344.263 Y288.234 E5.8300
G1 X344.461 Y288.216 E5.8508
G1 X351.191 Y287.916 E6.5565
G1 X351.384 Y287.916 E6.5768
G1 X358.114 Y288.216 E7.2826
G1 X358.313 Y288.234 E7.3034
G1 X364.998 Y289.148 E8.0104
G1 X365.191 Y289.183 E8.0309
G1 X371.761 Y290.691 E8.7372
G1 X371.951 Y290.744 E8.7579
G1 X378.381 Y292.851 E9.4667
G1 X378.563 Y292.920 E9.4872
G1 X384.782 Y295.595 E10.1965
G1 X384.957 Y295.680 E10.2169
G1 X390.930 Y298.910 E10.9283
G1 X391.095 Y299.009 E10.9484
G1 X396.766 Y302.758 E11.6607
G1 X396.921 Y302.870 E11.6807
G1 X402.262 Y307.117 E12.3956
G1 X402.408 Y307.244 E12.4159
G1 X407.368 Y311.966 E13.1334
G1 X407.498 Y312.101 E13.1531
G1 X412.047 Y317.249 E13.8728
G1 X412.167 Y317.397 E13.8927
G1 X416.255 Y322.934 E14.6138
G1 X416.358 Y323.086 E14.6330
G1 X419.976 Y328.965 E15.3563
G1 X420.069 Y329.131 E15.3762
G1 X423.170 Y335.322 E16.1017
G1 X423.245 Y335.491 E16.1210
G1 X425.813 Y341.931 E16.8474
G1 X425.874 Y342.104 E16.8666
G1 X427.897 Y348.760 E17.5955
G1 X427.944 Y348.940 E17.6150
G1 X429.393 Y355.750 E18.3444
G1 X429.423 Y355.929 E18.3634
G1 X430.301 Y362.835 E19.0928
G1 X430.316 Y363.016 E19.1119
G1 X430.615 Y369.981 E19.8422
G1 X430.615 Y370.168 E19.8618
G1 X430.316 Y377.133 E20.5922
G1 X430.301 Y377.314 E20.6112
G1 X429.423 Y384.231 E21.3417
G1 X429.393 Y384.411 E21.3608
G1 X427.943 Y391.210 E22.0892
G1 X427.897 Y391.390 E22.1086
G1 X425.874 Y398.046 E22.8375
G1 X425.813 Y398.218 E22.8566
G1 X424.923 Y400.453 E23.1087
G1 X422.712 Y401.952 E23.3886
G1 X279.863 Y401.952 E38.3547
G1 X277.652 Y400.453 E38.6346
G1 X276.762 Y398.218 E38.8867
G1 X276.702 Y398.046 E38.9058
G1 X274.678 Y391.390 E39.6346
G1 X274.632 Y391.210 E39.6540
G1 X273.183 Y384.411 E40.3824
G1 X273.152 Y384.231 E40.4015
G1 X272.274 Y377.314 E41.1320
G1 X272.259 Y377.133 E41.1511
G1 X271.960 Y370.168 E41.8815
G1 X271.960 Y369.981 E41.9010
G1 X272.259 Y363.016 E42.6314
G1 X272.274 Y362.835 E42.6505
G1 X273.152 Y355.929 E43.3799
G1 X273.182 Y355.750 E43.3988
G1 X274.631 Y348.940 E44.1283
G1 X274.678 Y348.760 E44.1478
G1 X276.702 Y342.104 E44.8767
G1 X276.762 Y341.931 E44.8959
G1 X279.330 Y335.491 E45.6222
G1 X279.405 Y335.322 E45.6416
G1 X282.506 Y329.131 E46.3670
G1 X282.599 Y328.965 E46.3870
G1 X286.219 Y323.086 E47.1103
G1 X286.321 Y322.934 E47.1295
G1 X290.408 Y317.398 E47.8505
G1 X290.528 Y317.249 E47.8705
G1 X295.077 Y312.101 E48.5902
G1 X295.207 Y311.966 E48.6099
G92 E0.0000
G1 E-1.5000 F1800
; feature inner perimeter
G1 X299.536 Y316.268 F6000
G1 E0.0000 F1800
G92 E0.0000
G1 X304.248 Y311.783 E0.6815 F1620
G1 X309.316 Y307.751 E1.3600
G1 X314.699 Y304.193 E2.0361
G1 X318.733 Y302.010 E2.5167
G1 X320.365 Y301.130 E2.7109
G1 X326.261 Y298.593 E3.3834
G1 X332.354 Y296.597 E4.0551
G1 X338.578 Y295.168 E4.7241
G1 X344.912 Y294.302 E5.3940
G1 X351.288 Y294.018 E6.0626
G1 X357.664 Y294.302 E6.7313
G1 X363.997 Y295.168 E7.4010
G1 X370.222 Y296.597 E8.0701
G1 X376.314 Y298.593 E8.7418
G1 X382.210 Y301.129 E9.4143
G1 X387.876 Y304.193 E10.0891
G1 X393.259 Y307.751 E10.7651
G1 X398.329 Y311.783 E11.4438
G1 X403.039 Y316.267 E12.1252
G1 X407.362 Y321.159 E12.8091
G1 X411.250 Y326.425 E13.4948
G1 X414.692 Y332.018 E14.1830
G1 X415.545 Y333.710 E14.3814
G1 X417.641 Y337.904 E14.8727
G1 X420.085 Y344.036 E15.5643
G1 X422.012 Y350.374 E16.2583
G1 X423.393 Y356.860 E16.9531
G1 X424.229 Y363.442 E17.6482
G1 X424.514 Y370.075 E18.3438
G1 X424.229 Y376.708 E19.0394
G1 X423.392 Y383.300 E19.7356
G1 X422.012 Y389.775 E20.4292
G1 X420.165 Y395.852 E21.0947
G1 X282.410 Y395.852 E35.5271
G1 X280.563 Y389.775 E36.1926
G1 X279.183 Y383.300 E36.8862
G1 X278.346 Y376.708 E37.5824
G1 X278.061 Y370.075 E38.2780
G1 X278.346 Y363.442 E38.9736
G1 X279.183 Y356.860 E39.6687
G1 X280.563 Y350.374 E40.3634
G1 X282.490 Y344.036 E41.0575
G1 X284.934 Y337.905 E41.7490
G1 X287.884 Y332.017 E42.4390
G1 X291.327 Y326.425 E43.1270
G1 X295.214 Y321.159 E43.8127
G1 X299.536 Y316.268 E44.4966
G1 X299.031 Y315.781 F6000
G92 E0.0000
G1 X303.788 Y311.254 E0.6880 F1620
G1 X308.904 Y307.184 E1.3729
G1 X314.339 Y303.592 E2.0555
G1 X318.401 Y301.394 E2.5393
G1 X320.059 Y300.499 E2.7368
